assets/icons/radio.svg

<svg xml:space="preserve" fill="#ebebeb" style="fill-rule:evenodd;clip-rule:evenodd;stroke-linejoin:round;stroke-miterlimit:2" viewBox="0 0 381 353" xmlns="http://www.w3.org/2000/svg"><path d="M3755 8600c-27-10-42-30-47-59-3-22-21-29-258-97-140-40-340-97-445-125-104-28-282-78-395-110s-342-95-510-139c-167-45-324-91-347-102-55-26-139-118-153-166-6-24-10-304-10-789 0-729 1-754 20-806 27-73 79-130 148-164l57-28h2490l52 24c61 27 126 93 156 159 22 47 22 53 25 796 4 862 7 822-83 911-97 98-5 89-1040 95l-910 5 170 46c94 26 269 75 390 109s328 92 459 129l239 67 23-23c28-28 49-29 91-3 47 29 66 72 61 142-3 47-10 64-33 88-40 42-104 59-150 40m555-785c63-33 60 13 60-795 0-696-1-737-19-770-10-19-33-45-51-57l-33-23H3066c-1359 0-1249-7-1293 80l-23 44v726c0 802-4 749 64 791 30 18 68 19 1249 19 1061 0 1222-2 1247-15" style="fill:#fff;fill-rule:nonzero" transform="matrix(.1 0 0 -.1 -111 903)"/><path d="M2093 7545c-16-7-33-20-37-30-3-9-6-236-6-504 0-479 0-489 21-515 25-32 75-35 110-7l24 19 3 499c2 392 0 502-10 516-20 26-69 37-105 22m387-15c-18-18-20-33-20-197v-177l-41-36c-32-27-42-44-46-76-5-36-1-45 27-77 18-21 38-37 46-37 12 0 14-37 14-210 0-197 1-211 20-230 30-30 83-27 109 6 21 26 21 36 21 514s0 488-21 514c-26 33-79 36-109 6m414-43-29-25-3-266c-3-214-6-266-17-266-26 0-65-60-65-99 0-42 28-86 60-96 18-6 20-16 20-94 0-97 12-146 40-161 30-16 65-12 94 11l26 20v478c0 449-1 479-18 494-33 30-75 32-108 4m792 3c-123-22-243-116-303-238-26-52-28-66-28-172 0-110 2-118 33-182 39-80 124-163 209-205 51-25 69-28 153-28 184 0 301 69 377 223 37 74 38 79 38 187 0 104-2 114-32 175-83 169-272 270-447 240m172-184c86-45 152-140 152-222 0-129-110-246-246-262-85-9-219 87-243 174-27 96-7 181 57 248 57 59 125 88 193 83 31-3 70-12 87-21" style="fill:#fff;fill-rule:nonzero" transform="matrix(.1 0 0 -.1 -111 903)"/></svg>

<?xml version="1.0" encoding="UTF-8" standalone="no"?>
<!DOCTYPE svg PUBLIC "-//W3C//DTD SVG 1.1//EN" "http://www.w3.org/Graphics/SVG/1.1/DTD/svg11.dtd">
<svg width="100%" height="100%" viewBox="0 0 381 353" version="1.1" xmlns="http://www.w3.org/2000/svg" xmlns:xlink="http://www.w3.org/1999/xlink" xml:space="preserve" xmlns:serif="http://www.serif.com/" style="fill-rule:evenodd;clip-rule:evenodd;stroke-linejoin:round;stroke-miterlimit:2;">
    <g transform="matrix(1,0,0,1,-111,-121)">
        <g transform="matrix(0.1,0,0,-0.1,0,1024)">
            <path d="M3755,8600C3728,8590 3713,8570 3708,8541C3705,8519 3687,8512 3450,8444C3310,8404 3110,8347 3005,8319C2901,8291 2723,8241 2610,8209C2497,8177 2268,8114 2100,8070C1933,8025 1776,7979 1753,7968C1698,7942 1614,7850 1600,7802C1594,7778 1590,7498 1590,7013C1590,6284 1591,6259 1610,6207C1637,6134 1689,6077 1758,6043L1815,6015L4305,6015L4357,6039C4418,6066 4483,6132 4513,6198C4535,6245 4535,6251 4538,6994C4542,7856 4545,7816 4455,7905C4358,8003 4450,7994 3415,8000L2505,8005L2675,8051C2769,8077 2944,8126 3065,8160C3186,8194 3393,8252 3524,8289L3763,8356L3786,8333C3814,8305 3835,8304 3877,8330C3924,8359 3943,8402 3938,8472C3935,8519 3928,8536 3905,8560C3865,8602 3801,8619 3755,8600ZM4310,7815C4373,7782 4370,7828 4370,7020C4370,6324 4369,6283 4351,6250C4341,6231 4318,6205 4300,6193L4267,6170L3066,6170C1707,6170 1817,6163 1773,6250L1750,6294L1750,7020C1750,7822 1746,7769 1814,7811C1844,7829 1882,7830 3063,7830C4124,7830 4285,7828 4310,7815Z" style="fill:white;fill-rule:nonzero;"/>
            <path d="M2093,7545C2077,7538 2060,7525 2056,7515C2053,7506 2050,7279 2050,7011C2050,6532 2050,6522 2071,6496C2096,6464 2146,6461 2181,6489L2205,6508L2208,7007C2210,7399 2208,7509 2198,7523C2178,7549 2129,7560 2093,7545Z" style="fill:white;fill-rule:nonzero;"/>
            <path d="M2480,7530C2462,7512 2460,7497 2460,7333L2460,7156L2419,7120C2387,7093 2377,7076 2373,7044C2368,7008 2372,6999 2400,6967C2418,6946 2438,6930 2446,6930C2458,6930 2460,6893 2460,6720C2460,6523 2461,6509 2480,6490C2510,6460 2563,6463 2589,6496C2610,6522 2610,6532 2610,7010C2610,7488 2610,7498 2589,7524C2563,7557 2510,7560 2480,7530Z" style="fill:white;fill-rule:nonzero;"/>
            <path d="M2894,7487L2865,7462L2862,7196C2859,6982 2856,6930 2845,6930C2819,6930 2780,6870 2780,6831C2780,6789 2808,6745 2840,6735C2858,6729 2860,6719 2860,6641C2860,6544 2872,6495 2900,6480C2930,6464 2965,6468 2994,6491L3020,6511L3020,6989C3020,7438 3019,7468 3002,7483C2969,7513 2927,7515 2894,7487Z" style="fill:white;fill-rule:nonzero;"/>
            <path d="M3686,7490C3563,7468 3443,7374 3383,7252C3357,7200 3355,7186 3355,7080C3355,6970 3357,6962 3388,6898C3427,6818 3512,6735 3597,6693C3648,6668 3666,6665 3750,6665C3934,6665 4051,6734 4127,6888C4164,6962 4165,6967 4165,7075C4165,7179 4163,7189 4133,7250C4050,7419 3861,7520 3686,7490ZM3858,7306C3944,7261 4010,7166 4010,7084C4010,6955 3900,6838 3764,6822C3679,6813 3545,6909 3521,6996C3494,7092 3514,7177 3578,7244C3635,7303 3703,7332 3771,7327C3802,7324 3841,7315 3858,7306Z" style="fill:white;fill-rule:nonzero;"/>
        </g>
    </g>
</svg>
